assets/Grinning face with big eyes/Flat/grinning_face_with_big_eyes_flat.svg

<svg width="32" height="32" viewBox="0 0 32 32" fill="none" xmlns="http://www.w3.org/2000/svg">
<path d="M15.9989 29.9978C25.3333 29.9978 29.9978 23.7303 29.9978 15.9989C29.9978 8.26751 25.3333 2 15.9989 2C6.66443 2 2 8.26751 2 15.9989C2 23.7303 6.66443 29.9978 15.9989 29.9978Z" fill="#FFB02E"/>
<path d="M15 10.0512C15 11.6495 14.3387 13.0744 13.3064 14C12.9682 13.8727 12.5905 13.7495 12.1935 13.6496C11.6476 13.5122 11 12.8574 11 12.8574C11 12.8574 9.86986 13.4472 9.55611 13.496C8.88922 13.5996 8.23975 13.7943 7.69357 14C6.66132 13.0744 6 11.6495 6 10.0512C6 7.2615 8.01472 5 10.5 5C12.9853 5 15 7.2615 15 10.0512Z" fill="white"/>
<path d="M26 10.0512C26 11.6495 25.3387 13.0744 24.3064 14C23.7549 13.7923 23.0981 13.5958 22.4244 13.493C22.117 13.4461 21 12.8574 21 12.8574C21 12.8574 20.3614 13.5107 19.8192 13.6464C19.4176 13.7469 19.0353 13.8713 18.6936 14C17.6613 13.0744 17 11.6495 17 10.0512C17 7.2615 19.0147 5 21.5 5C23.9853 5 26 7.2615 26 10.0512Z" fill="white"/>
<path d="M14 10.5C14 11.9342 13.2606 13.167 12.2022 13.7076C11.6539 13.5842 11.0685 13.5 10.5 13.5C10.1875 13.5 9.87 13.5254 9.55631 13.5688C8.62865 12.9736 8 11.8224 8 10.5C8 8.567 9.34315 7 11 7C12.6569 7 14 8.567 14 10.5Z" fill="#402A32"/>
<path d="M24 10.5C24 11.8224 23.3714 12.9736 22.4437 13.5688C22.13 13.5254 21.8125 13.5 21.5 13.5C20.9315 13.5 20.3461 13.5842 19.7978 13.7076C18.7394 13.167 18 11.9342 18 10.5C18 8.567 19.3431 7 21 7C22.6569 7 24 8.567 24 10.5Z" fill="#402A32"/>
<path d="M16 25C7 25 7 16 7 16H25C25 16 25 25 16 25Z" fill="#BB1D80"/>
<path d="M8 16.5V16H24V16.5C24 17.0523 23.5523 17.5 23 17.5H9C8.44772 17.5 8 17.0523 8 16.5Z" fill="white"/>
</svg>

<svg xmlns="http://www.w3.org/2000/svg" width="32" height="32" fill="none"><path fill="#FFB02E" d="M15.999 29.998c9.334 0 13.999-6.268 13.999-14 0-7.73-4.665-13.998-14-13.998C6.665 2 2 8.268 2 15.999c0 7.731 4.664 13.999 13.999 13.999Z"/><path fill="#fff" d="M15 10.051c0 1.598-.661 3.023-1.694 3.949a10.36 10.36 0 0 0-1.112-.35c-.546-.138-1.194-.793-1.194-.793s-1.13.59-1.444.639A9.553 9.553 0 0 0 7.694 14C6.66 13.074 6 11.65 6 10.051 6 7.261 8.015 5 10.5 5S15 7.261 15 10.051ZM26 10.051c0 1.598-.661 3.023-1.694 3.949a9.53 9.53 0 0 0-1.882-.507c-.307-.047-1.424-.636-1.424-.636s-.639.654-1.18.79c-.402.1-.785.224-1.126.353C17.66 13.074 17 11.65 17 10.051 17 7.261 19.015 5 21.5 5S26 7.261 26 10.051Z"/><path fill="#402A32" d="M14 10.5c0 1.434-.74 2.667-1.798 3.208A7.869 7.869 0 0 0 10.5 13.5c-.313 0-.63.025-.944.069C8.63 12.974 8 11.822 8 10.5 8 8.567 9.343 7 11 7s3 1.567 3 3.5ZM24 10.5c0 1.322-.629 2.474-1.556 3.069a6.917 6.917 0 0 0-.944-.069c-.569 0-1.154.084-1.702.208C18.739 13.167 18 11.934 18 10.5 18 8.567 19.343 7 21 7s3 1.567 3 3.5Z"/><path fill="#BB1D80" d="M16 25c-9 0-9-9-9-9h18s0 9-9 9Z"/><path fill="#fff" d="M8 16.5V16h16v.5a1 1 0 0 1-1 1H9a1 1 0 0 1-1-1Z"/></svg>
